X:1
T:A solis ortus, cardine
T:A solis ortus, cardine
T:Gilles Binchois (c. 1400-1460)
T:© 2009 by Paul R Marchesano. May be freely copied for nonprofit use.
T:© 2009 by Paul R Marchesano. May be freely copied for nonprofit use.
T:© 2009 by Paul R Marchesano. May be freely copied for nonprofit use.
T:© 2009 by Paul R Marchesano. May be freely copied for nonprofit use.
C:Gilles Binchois
C:(c. 1400-1460)
Z:© 2009 by Paul R Marchesano. May be freely copied for nonprofit use.
%%score [ 1 2 3 4 ]
L:1/8
Q:1/4=120
M:2/2
K:Cmin
V:1 treble nm="Soprano" snm="S"
V:2 treble nm="Alto" snm="A"
V:3 treble-8 nm="Tenor" snm="T"
V:4 bass nm="Bass" snm="B"
V:1
 F8 | G8 | A8 | B8 | c8 | F8 | G8 | A8 | B8 | A8 | G8 | G8 | z8 | B8 | c4 A4- | A2 G2 G4- | G4 F4 | %17
w: A|so-|lis|or-||tus,|car-|||di-||ne||A|so- lis|_ _ or-||
 G6 A2 | B4 B4 | c8 | B8 | z8 | z8 | B8 | c2 d2 e4- | e2 dc d4 | e4 z4 | e6 d2 | c4 c4 | %29
w: tus, _|car- di-|ne|_|||ad-|us- * *||que|ter- *|* rae|
 B4 c2 e2- | e2 dc d4 | e8- | e8 | z8 | B8 | B8 | e8 | e8 | e6 d2 | c4 B4 | z8 | z8 | c4 e4 | %43
w: _ li- *|* * * mi-|tem|_||Chri-|stum|_|ca-|na- *|mus _|||prin- *|
 c4 B4 | G8 | B8 | c8 | z4 F4 | A8 | A8 | c8 | c8 | e6 dc | d2 B3 A GF | E4 B4 | c4 B2 A2- | %56
w: ci- *|pem|_||na-|tum|Ma-|ri-|a|_ _ _||vir- *||
 A2 G2 G4- | G2 FE F4 | G8- | G8 |] %60
w: * * gi-||ne.|_|
V:2
 z8 | z8 | z8 | z8 | C8 | D8 | E8 | F6 C2 | G8 | C6 D2 | E8- | E8 | A,2 B,2 C2 D2 | E8 | E4 F4 | %15
w: ||||A|so-|lis|or- *||tus, _|_||car- * * *||di- *|
 D4 E4 | C6 D2 | E2 C2 E2 F2 | G2 FE D2 G2- | G2 FE F4 | G8 | E2 F2 G4 | A6 GF | G6 G2 | A4 G2 A2 | %25
w: |||* * * * ne|_ _ _ _|ad-|us- * *||que ter-|rae _ _|
 B8 | G8 | A4 B4- | B2 A2 A2 G2 | B4 z2 G2 | c4 B4 | G3 A B2 c2- | c2 B2 c2 BA | B8- | B8 | G6 A2 | %36
w: _||||* li-|* mi-|tem _ _ _|_ _ _ _ _|||Chri- *|
 B4 A4- | A2 GF E4- | E2 F2 G4 | C4 z4 | G8 | F8 | E8 | A4 G4- | G2 F2 E4 | D2 C2 D4 | C8- | C8 | %48
w: stum _|_ _ _ _|||prin-|||ci- *|||pem|_|
 C4 A,4 | E8 | E8 | C4 G4 | A6 GF | G6 F2 | G2 FE D2 E2 | F8 | D4 E4 | C6 D2 | [CE]8- | [CE]8 |] %60
w: na- tum|Ma-|ri-|a _|_ _ _||vir- * * * *|||gi- *|ne.|_|
V:3
 z8 | z8 | z8 | z8 | z8 | z8 | z8 | F8 | G8 | A8 | B8 | c8 | F8 | G8 | A8 | B8 | A8 | G8 | G8 | %19
w: |||||||A|so-|lis|or-||tus,|car-|||di-||ne|
 z8 | B8 | c2 d2 e4- | e2 dc d4 | e8 | z4 e4 | f8 | e6 d2 | c4 B4 | e4 f4 | g4 e4 | f8 | e8 | z8 | %33
w: |ad-|us- * *||que|ter-|||* rae|li- *||mi-|tem||
 B8 | B8 | e8 | e8 | e6 d2 | c4 B4 | c4 e4 | d2 c2 c4- | c4 =B4 | c8 | z8 | z8 | z8 | F8 | A8 | %48
w: Chri-|stum|_|ca-|na- *|mus _|prin- *|* * ci-||pem||||na-|tum|
 A8 | c8 | c8 | e8 | c8 | B8 | G8 | A8 | B8 | A8 | G8- | G8 |] %60
w: Ma-|ri-|a|_||vir-||||gi-|ne.|_|
V:4
 z8 | z8 | F,8 | G,8 | A,8 | B,6 F,2 | C8 | F,8 | z4 E,4 | F,8 | E,6 D,2 | C,4 C4- | %12
w: ||A|so-|lis|or- *||tus,|car-|||di- *|
 C2 B,2 A,2 G,F, | E,8 | A,4 F,4 | G,4 E,4 | F,6 E,2 | C,2 G,4 F,2 | E,2 B,3 A, G,2 | A,2 F,2 A,4 | %20
w: |||||||ne _ _|
 G,4 E,4 | A,4 G,4 | F,8 | E,6 E,2 | A,2 B,2 C4 | B,8 | C6 B,2 | A,4 G,4 | A,4 F,2 A,2 | %29
w: ad- *|us- *||que ter-||||* rae|li- * *|
 G,4 A,2 C2- | C2 B,A, B,4 | C3 B,/A,/ G,2 A,2- | A,2 G,2 A,2 G,F, | G,2 E,4 F,2 | G,2 A,2 B,4 | %35
w: |* * * mi-|tem _ _ _ _|_ _ _ _ _|* Chri- *||
 E,8 | E,4 A,4- | A,2 B,2 C4- | C2 B,A, G,4 | A,2 F,2 G,4- | G,2 F,2 E,4 | D,8 | C,8 | F,4 G,4 | %44
w: stum|ca- na-||* * * mus|prin- * *||ci-|pem|_ _|
 E,4 C,4 | G,8 | A,8 | F,8 | z4 F,4 | A,6 G,2 | A,6 B,2 | C6 B,2 | A,6 G,A, | B,2 G,3 F,E,D, | %54
w: ||na-|tum|Ma-|ri- *|a _|_ _|||
 C,4 G,4 | F,6 E,F, | G,4 E,4 | F,6 E,2 | C,8 | C,8 |] %60
w: vir- *||||gi-|ne.|

